packages/calcite-ui-icons/icons/bulldozer-32.svg

<?xml version="1.0" encoding="UTF-8"?><svg id="icons" xmlns="http://www.w3.org/2000/svg" viewBox="0 0 32 32"><defs><style>.cls-1{fill:none;}</style></defs><path d="M31.80859,28l-1.80859-3.61816v-7.38184h-4v5h-10v3h10v3h5.80859ZM27,18h2v6.61816l1.19141,2.38184h-3.19141v-9ZM17,24v-1h9v1h-9ZM18.5,27H4.5c-1.92969,0-3.5-1.57031-3.5-3.5s1.57031-3.5,3.5-3.5h14c.94995,0,1.81042.38336,2.44171,1h1.29651c-.80829-1.20471-2.18152-2-3.73822-2H4.5c-.1712,0-.33368.0318-.5.05054v-2.05054h-1v-2.38184l.80859-1.61816h18.38281l.80859,1.61816v6.38184h1v-6.61816l-1.19141-2.38184h-3.80859v-4h-1v4h-3.06665l-.99976-7H4v1h1v6h-1.80859l-1.19141,2.38184v3.61816h1v1.27643c-1.74219.62122-3,2.27063-3,4.22357,0,2.48145,2.01855,4.5,4.5,4.5h14c1.5567,0,2.92993-.79529,3.73822-2h-1.29651c-.63129.61664-1.49176,1-2.44171,1ZM9,6h4.06641l.85742,6h-4.92383v-6ZM6,6h2v6h-2v-6ZM3,23.5c0,.82715.67285,1.5,1.5,1.5h10.5v1H4.5c-1.37891,0-2.5-1.12109-2.5-2.5s1.12109-2.5,2.5-2.5h8.5v1H4.5c-.82715,0-1.5.67285-1.5,1.5Z"/><rect class="cls-1" width="32" height="32"/></svg>

<svg xmlns="http://www.w3.org/2000/svg" viewBox="0 0 32 32"><path d="M31.809 28L30 24.382V17h-4v5H16v3h10v3h5.809zM27 18h2v6.618L30.191 27H27v-9zm-10 6v-1h9v1h-9zm1.5 3h-14C2.57 27 1 25.43 1 23.5S2.57 20 4.5 20h14c.95 0 1.81.383 2.442 1h1.296a4.498 4.498 0 0 0-3.738-2h-14c-.171 0-.334.032-.5.05V17H3v-2.382L3.809 13H22.19l.81 1.618V21h1v-6.618L22.809 12H19V8h-1v4h-3.067l-1-7H4v1h1v6H3.191L2 14.382V18h1v1.276c-1.742.622-3 2.271-3 4.224C0 25.981 2.019 28 4.5 28h14c1.557 0 2.93-.795 3.738-2h-1.296c-.632.617-1.492 1-2.442 1zM9 6h4.066l.858 6H9V6zM6 6h2v6H6V6zM3 23.5c0 .827.673 1.5 1.5 1.5H15v1H4.5C3.121 26 2 24.879 2 23.5S3.121 21 4.5 21H13v1H4.5c-.827 0-1.5.673-1.5 1.5z"/><path fill="none" d="M0 0h32v32H0z"/></svg>
